X:0
T:The Piper's Prelude
Z:Jack Campin <http://www.campin.me.uk/> version 1.0 September 2001
C:Pipe-Major G.S. MacLennan (1911)
S:Pipe Major Donald Macleod's Collection of Music for the Highland Bagpipe Book 3
B:my copy, formerly Jimmy Greenan's
R:March
M:2/4
L:1/16
Q:1/4=86
K:Hp
{ag}a2| {cd}c2e2      {g}A2{d}c2      |{gfg}f2ed     {gcd}c4      |\
       {gef}e2dc    {Gdc}d2{e}B2      |{gfg}f2{g}ec    {g}e2{ag}a2|
        {cd}c2e2      {g}A2{d}c2      |{gfg}f2ed     {gcd}c4      |\
         {g}ed{e}dc      d{e}G{d}c{e}B|  {G}A4     {gAGAG}A2     :|
    e2|  {g}f2{ag}a2 {dG}d2f2         |  {g}e2{ag}a2  {cd}c3e     |\
       {Gdc}d2f2      {g}B2{Gdc}d2    |{gfg}f2ed  [1 {gcd}c3e     |
         {g}f2{ag}a2 {dG}d2f2         |  {g}e2{ag}a2  {cd}c4      |\
         {g}ed{e}dc      d{e}G{d}c{e}B|  {G}A4     {gAGAG}A2     :|\
                                                  [2 {gcd}c3B     |
         {g}A3{d}c    {g}e2{ag}a2     | {fg}f3e      {gcd}c2e2    |\
         {g}ed{e}dc      d{e}G{d}c{e}B|  {G}A4     {gAGAG}A2     |]
